X:107
T:The Galway Hornpipe     Allan's  #107  pp27
C:Trad/Anon
B:Allan's Irish Fiddler (pub. Mozart Allen,  Glascow) date unknown
Z:FROM ALLAN'S TO NOTEWORTHY, FROM NOTEWORTHY TO ABC, MIDI AND .TXT BY VINCE
BRENNAN Dec. 2002 (HTTP://WWW.SOSYOURMOM.COM)
I:abc2nwc
M:4/4
L:1/8
K:D
(F3/2E/2)|D2F3/2A/2 d3/2A/2F3/2D/2|(C3/2D/2)(E3/2F/2) G2(F3/2E/2)|D2F3/2A/2 d3/2c/2d3/2f/2| (3(efe)  (3(dcB)  (3(ABA)  (3(GFE)|
D2F3/2A/2 d3/2A/2F3/2D/2|(C3/2D/2)(E3/2F/2) G2(F3/2G/2)|A3/2d/2c3/2B/2  (3(ABA)  (3(GFE)|D2F2D2:|
|:(d3/2e/2)|f3/2e/2f3/2g/2 f3/2e/2d3/2c/2|B3/2A/2B3/2c/2B2(c3/2d/2)|e3/2d/2e3/2f/2 e3/2d/2c3/2B/2| (3(AAA) c3/2e/2a2 (3(ABc)|
d3/2c/2d3/2e/2 f3/2d/2A3/2F/2|G3/2F/2G3/2A/2 B3/2d/2c3/2B/2|A3/2d/2c3/2B/2  (3(ABA)  (3(GFE)|.D2.F2.D2:|
